pix_core/e/cut.svg

<svg preserveAspectRatio="xMinYMid meet" viewBox="0 0 512 512" xmlns="http://www.w3.org/2000/svg"><path d="m256 192-39.5-39.5c4.9-12.6 7.5-26.2 7.5-40.5 0-61.9-50.1-112-112-112s-112 50.1-112 112 50.1 112 112 112c14.3 0 27.9-2.7 40.5-7.5l39.5 39.5-39.5 39.5c-12.6-4.9-26.2-7.5-40.5-7.5-61.9 0-112 50.1-112 112s50.1 112 112 112 112-50.1 112-112c0-14.3-2.7-27.9-7.5-40.5l282.7-282.7c7.1-7.1 7.1-18.5 0-25.6-28.3-28.3-74.1-28.3-102.4 0zm22.6 150.6 118.2 118.2c28.3 28.3 74.1 28.3 102.4 0 7.1-7.1 7.1-18.5 0-25.6l-156.6-156.6zm-214.6-230.6a48 48 0 1 1 96 0 48 48 0 1 1 -96 0zm48 240a48 48 0 1 1 0 96 48 48 0 1 1 0-96z" fill="#fff"/></svg>

<svg xmlns="http://www.w3.org/2000/svg" viewBox="0 0 512 512" preserveAspectRatio="xMinYMid meet"><path fill="#fff" d="M256 192l-39.5-39.5c4.9-12.6 7.5-26.2 7.5-40.5C224 50.1 173.9 0 112 0S0 50.1 0 112s50.1 112 112 112c14.3 0 27.9-2.7 40.5-7.5L192 256l-39.5 39.5c-12.6-4.9-26.2-7.5-40.5-7.5C50.1 288 0 338.1 0 400s50.1 112 112 112s112-50.1 112-112c0-14.3-2.7-27.9-7.5-40.5L499.2 76.8c7.1-7.1 7.1-18.5 0-25.6c-28.3-28.3-74.1-28.3-102.4 0L256 192zm22.6 150.6L396.8 460.8c28.3 28.3 74.1 28.3 102.4 0c7.1-7.1 7.1-18.5 0-25.6L342.6 278.6l-64 64zM64 112a48 48 0 1 1 96 0 48 48 0 1 1 -96 0zm48 240a48 48 0 1 1 0 96 48 48 0 1 1 0-96z"/></svg>
